X: 5813
T: Calgary Capers
R: reel
M: 4/4
K: Eminor
E2 DE GAB(A|A)GFA GEDB,|E2 BE B^cd(d|d)^cBd BcAF|
E2 DE GAB(A|A)GFA GEDB,|E2 BE GE E/E/E|1 DEGA BEED:|2 DEGA BEEA||
BE E/E/E BEdE|^cA A/A/A cAeA|dB B/B/B AB (B2|B)BAB GEED|
E2 BE BBEd|^cA A/A/A cAec|dB B/B/B FB B/B/B|1 ABAG EFGA:|2 ABAG EGBe||
ge e/e/e Bega|fd d/d/d Bdfg|ec c/c/c Gcec|^dBBe BBfB|
ge e/e/e Bega|fd d/d/d Bdfg|ec A/B/c BE E/E/E|1 DEGA Befe:|2 DEGA BE E2||

